X: 20
T: Pull The Knife And Stick It Again
Z: MegatronGalvatron
S: https://thesession.org/tunes/398#setting54002
R: jig
M: 6/8
L: 1/8
K: Bmin
|: B2 B dcB | AFB AFA | B2 B dcB | efd ecA |
B2 B dcB | AFB ABc | dc B cBA |1 FBA B2 A :|2 FBA B3||
|: baf fec | BAF Ac f | baf fec | ef^g a3 |
baf fec | BAF ABc | dc B cBA |1 FBA B3 :|2 FBA B2 A ||

%-------------------- TUNE SEPARATOR --------------------%

